svgs/sharp-solid/money-bill-1.svg

<svg xmlns="http://www.w3.org/2000/svg" viewBox="0 0 576 512"><!--! Font Awesome Pro 6.6.0 by @fontawesome - https://fontawesome.com License - https://fontawesome.com/license (Commercial License) Copyright 2024 Fonticons, Inc. --><path d="M576 64L0 64 0 448l576 0 0-384zM128 384l-64 0 0-64c35.3 0 64 28.7 64 64zM64 192l0-64 64 0c0 35.3-28.7 64-64 64zM448 384c0-35.3 28.7-64 64-64l0 64-64 0zm64-192c-35.3 0-64-28.7-64-64l64 0 0 64zM176 256a112 112 0 1 1 224 0 112 112 0 1 1 -224 0zm76-68l0 40 16 0 0 48-4 0-20 0 0 40 20 0 24 0 24 0 20 0 0-40-20 0-4 0 0-68 0-20-20 0-16 0-20 0z"/></svg>

<svg xmlns="http://www.w3.org/2000/svg" viewBox="0 0 576 512"><!--! Font Awesome Pro 6.5.2 by @fontawesome - https://fontawesome.com License - https://fontawesome.com/license (Commercial License) Copyright 2024 Fonticons, Inc. --><path d="M576 64H0V448H576V64zM128 384H64V320c35.3 0 64 28.7 64 64zM64 192V128h64c0 35.3-28.7 64-64 64zM448 384c0-35.3 28.7-64 64-64v64H448zm64-192c-35.3 0-64-28.7-64-64h64v64zM176 256a112 112 0 1 1 224 0 112 112 0 1 1 -224 0zm76-68v40h16v48h-4H244v40h20 24 24 20V276H312h-4V208 188H288 272 252z"/></svg>
